flaticon/design/polygon.svg

<svg xmlns="http://www.w3.org/2000/svg" width="32" height="32" viewBox="0 0 24 24">
    <path d="M 23.863281 10.417969 L 12.28125 0.183594 C 12.128906 0.0507812 11.90625 0.0507812 11.753906 0.179688 L 0.136719 10.316406 C 0.015625 10.421875 -0.03125 10.59375 0.0234375 10.746094 L 4.421875 23.644531 C 4.476562 23.808594 4.628906 23.917969 4.800781 23.917969 L 19.179688 23.917969 C 19.351562 23.917969 19.503906 23.808594 19.558594 23.648438 L 23.976562 10.847656 C 24.03125 10.695312 23.988281 10.523438 23.863281 10.417969 Z M 18.894531 23.117188 L 5.085938 23.117188 L 0.863281 10.742188 L 12.015625 1.015625 L 23.132812 10.839844 Z M 18.894531 23.117188"/>
</svg>

<svg xmlns="http://www.w3.org/2000/svg" width="32" height="32" viewBox="0 0 24 24">
    <path d="M23.863 10.418L12.281.184a.403.403 0 0 0-.527-.004L.137 10.316a.396.396 0 0 0-.114.43l4.399 12.899a.399.399 0 0 0 .379.273H19.18a.4.4 0 0 0 .379-.27l4.418-12.8a.39.39 0 0 0-.114-.43zm-4.968 12.7H5.085L.864 10.741l11.153-9.726 11.117 9.824zm0 0"/>
</svg>
